X: 22106
T: Kohanuška
R: polka
M: 2/4
K: Eminor
E>G FE|EG B2|BA GA|B2 B2|
E>G FE|EG B2|BA GF|E2 E2:|
|:d>e dc|cB B/A/B/c/|BA A/G/A/B/|AG GB|
d>e dc|cB B/A/B/c/|BA GF|E2 E2:|

